svg/color/artem.svg

<?xml version="1.0" encoding="UTF-8" ?>
<!DOCTYPE svg PUBLIC "-//W3C//DTD SVG 1.1//EN" "http://www.w3.org/Graphics/SVG/1.1/DTD/svg11.dtd">
<svg width="250pt" height="178pt" viewBox="0 0 250 178" version="1.1" xmlns="http://www.w3.org/2000/svg">
<g id="#ffffffff">
<path fill="#ffffff" opacity="1.00" d=" M 0.00 0.00 L 124.65 0.00 C 121.67 2.97 118.70 5.95 115.73 8.93 C 112.26 12.40 108.75 15.82 105.32 19.32 C 101.68 23.04 97.88 26.59 94.28 30.33 C 91.31 33.44 88.15 36.33 85.19 39.44 C 83.14 41.57 80.97 43.59 78.94 45.74 C 76.36 48.48 73.55 50.99 70.98 53.73 C 48.23 76.37 25.58 99.12 2.86 121.80 C 1.81 122.48 1.37 124.35 0.00 124.39 L 0.00 0.00 Z" />
<path fill="#ffffff" opacity="1.00" d=" M 124.71 0.00 L 250.00 0.00 L 250.00 178.00 L 0.00 178.00 L 0.00 124.63 C 4.10 128.18 8.09 132.61 12.11 136.56 C 30.91 117.90 49.61 99.15 68.30 80.39 C 87.14 99.01 105.73 117.88 124.56 136.52 C 128.95 132.12 133.30 127.69 137.71 123.32 C 139.76 121.35 141.73 119.29 143.76 117.30 C 147.98 113.19 152.04 108.92 156.25 104.80 C 158.95 102.17 161.54 99.44 164.24 96.81 C 167.99 93.14 171.63 89.35 175.38 85.68 C 177.15 83.91 178.90 82.11 180.75 80.42 C 199.49 99.10 218.11 117.92 236.93 136.52 C 237.93 135.52 238.94 134.54 239.93 133.54 C 242.87 130.54 245.90 127.62 248.83 124.61 C 246.77 122.23 244.45 120.09 242.24 117.85 C 205.40 81.01 168.57 44.15 131.72 7.31 C 129.33 4.92 126.87 2.60 124.71 0.00 Z" />
<path fill="#ffffff" opacity="1.00" d=" M 117.76 30.96 C 120.06 28.74 122.23 26.38 124.61 24.25 C 139.25 38.95 153.94 53.61 168.62 68.28 C 166.93 70.13 165.14 71.87 163.37 73.64 C 159.39 77.67 155.34 81.61 151.37 85.62 C 149.20 87.86 146.95 90.01 144.79 92.25 C 140.53 96.56 136.16 100.76 131.91 105.09 C 129.87 107.16 127.79 109.21 125.75 111.29 C 125.42 111.60 124.76 112.22 124.43 112.52 C 109.81 97.66 94.88 83.09 80.29 68.20 C 81.29 67.25 82.30 66.31 83.31 65.36 C 85.82 63.00 88.14 60.45 90.63 58.08 C 93.02 55.80 95.28 53.39 97.64 51.09 C 100.72 48.13 103.63 45.01 106.70 42.04 C 110.44 38.40 114.04 34.62 117.76 30.96 Z" />
</g>
<g id="#7ecae2ff">
<path fill="#7ecae2" opacity="1.00" d=" M 124.65 0.00 L 124.71 0.00 C 126.87 2.60 129.33 4.92 131.72 7.31 C 168.57 44.15 205.40 81.01 242.24 117.85 C 244.45 120.09 246.77 122.23 248.83 124.61 C 245.90 127.62 242.87 130.54 239.93 133.54 C 236.88 131.50 234.32 128.84 231.81 126.18 C 222.31 116.66 212.74 107.21 203.30 97.63 C 196.49 90.79 189.37 84.23 183.27 76.73 C 160.87 54.02 138.06 31.71 115.73 8.93 C 118.70 5.95 121.67 2.97 124.65 0.00 Z" />
</g>
<g id="#88b8d8ff">
<path fill="#88b8d8" opacity="1.00" d=" M 105.32 19.32 C 108.75 15.82 112.26 12.40 115.73 8.93 C 138.06 31.71 160.87 54.02 183.27 76.73 C 189.37 84.23 196.49 90.79 203.30 97.63 C 212.74 107.21 222.31 116.66 231.81 126.18 C 234.32 128.84 236.88 131.50 239.93 133.54 C 238.94 134.54 237.93 135.52 236.93 136.52 C 218.11 117.92 199.49 99.10 180.75 80.42 C 178.90 82.11 177.15 83.91 175.38 85.68 C 172.18 80.96 167.92 77.02 163.37 73.64 C 165.14 71.87 166.93 70.13 168.62 68.28 C 153.94 53.61 139.25 38.95 124.61 24.25 C 122.23 26.38 120.06 28.74 117.76 30.96 C 113.80 26.90 110.21 22.30 105.32 19.32 Z" />
</g>
<g id="#9d92c2ff">
<path fill="#9d92c2" opacity="1.00" d=" M 94.28 30.33 C 97.88 26.59 101.68 23.04 105.32 19.32 C 110.21 22.30 113.80 26.90 117.76 30.96 C 114.04 34.62 110.44 38.40 106.70 42.04 C 102.78 37.94 99.26 33.21 94.28 30.33 Z" />
<path fill="#9d92c2" opacity="1.00" d=" M 163.37 73.64 C 167.92 77.02 172.18 80.96 175.38 85.68 C 171.63 89.35 167.99 93.14 164.24 96.81 C 160.02 93.07 156.99 87.33 151.37 85.62 C 155.34 81.61 159.39 77.67 163.37 73.64 Z" />
</g>
<g id="#af70aeff">
<path fill="#af70ae" opacity="1.00" d=" M 85.19 39.44 C 88.15 36.33 91.31 33.44 94.28 30.33 C 99.26 33.21 102.78 37.94 106.70 42.04 C 103.63 45.01 100.72 48.13 97.64 51.09 C 93.76 46.96 90.14 42.36 85.19 39.44 Z" />
<path fill="#af70ae" opacity="1.00" d=" M 151.37 85.62 C 156.99 87.33 160.02 93.07 164.24 96.81 C 161.54 99.44 158.95 102.17 156.25 104.80 C 154.25 99.26 148.86 96.13 144.79 92.25 C 146.95 90.01 149.20 87.86 151.37 85.62 Z" />
</g>
<g id="#c0529dff">
<path fill="#c0529d" opacity="1.00" d=" M 78.94 45.74 C 80.97 43.59 83.14 41.57 85.19 39.44 C 90.14 42.36 93.76 46.96 97.64 51.09 C 95.28 53.39 93.02 55.80 90.63 58.08 C 87.40 53.37 83.03 49.65 78.94 45.74 Z" />
<path fill="#c0529d" opacity="1.00" d=" M 131.91 105.09 C 136.16 100.76 140.53 96.56 144.79 92.25 C 148.86 96.13 154.25 99.26 156.25 104.80 C 152.04 108.92 147.98 113.19 143.76 117.30 C 140.09 112.97 136.15 108.88 131.91 105.09 Z" />
</g>
<g id="#d1338bff">
<path fill="#d1338b" opacity="1.00" d=" M 70.98 53.73 C 73.55 50.99 76.36 48.48 78.94 45.74 C 83.03 49.65 87.40 53.37 90.63 58.08 C 88.14 60.45 85.82 63.00 83.31 65.36 C 79.14 61.55 75.61 57.03 70.98 53.73 Z" />
<path fill="#d1338b" opacity="1.00" d=" M 125.75 111.29 C 127.79 109.21 129.87 107.16 131.91 105.09 C 136.15 108.88 140.09 112.97 143.76 117.30 C 141.73 119.29 139.76 121.35 137.71 123.32 C 134.35 118.74 130.16 114.85 125.75 111.29 Z" />
</g>
<g id="#e51077ff">
<path fill="#e51077" opacity="1.00" d=" M 2.86 121.80 C 25.58 99.12 48.23 76.37 70.98 53.73 C 75.61 57.03 79.14 61.55 83.31 65.36 C 82.30 66.31 81.29 67.25 80.29 68.20 C 94.88 83.09 109.81 97.66 124.43 112.52 C 124.76 112.22 125.42 111.60 125.75 111.29 C 130.16 114.85 134.35 118.74 137.71 123.32 C 133.30 127.69 128.95 132.12 124.56 136.52 C 105.73 117.88 87.14 99.01 68.30 80.39 C 49.61 99.15 30.91 117.90 12.11 136.56 C 8.09 132.61 4.10 128.18 0.00 124.63 L 0.00 124.39 C 1.37 124.35 1.81 122.48 2.86 121.80 Z" />
</g>
</svg>

<?xml version="1.0" encoding="utf-8"?>
<!-- Generator: Adobe Illustrator 26.0.3, SVG Export Plug-In . SVG Version: 6.00 Build 0)  -->
<svg version="1.1" id="Layer_1" xmlns="http://www.w3.org/2000/svg" xmlns:xlink="http://www.w3.org/1999/xlink" x="0px" y="0px"
	 viewBox="0 0 250 178" style="enable-background:new 0 0 250 178;" xml:space="preserve">
<style type="text/css">
	.st0{fill:#FFFFFF;}
	.st1{fill:#7ECAE2;}
	.st2{fill:#88B8D8;}
	.st3{fill:#9D92C2;}
	.st4{fill:#AF70AE;}
	.st5{fill:#C0529D;}
	.st6{fill:#D1338B;}
	.st7{fill:#E51077;}
</style>
<g id="_x23_ffffffff">
	<path class="st0" d="M117.8,31c2.3-2.2,4.5-4.6,6.8-6.7c14.6,14.7,29.3,29.4,44,44c-1.7,1.8-3.5,3.6-5.2,5.4c-4,4-8,8-12,12
		c-2.2,2.2-4.4,4.4-6.6,6.6c-4.3,4.3-8.6,8.5-12.9,12.8c-2,2.1-4.1,4.1-6.2,6.2c-0.3,0.3-1,0.9-1.3,1.2
		c-14.6-14.9-29.6-29.4-44.1-44.3c1-0.9,2-1.9,3-2.8c2.5-2.4,4.8-4.9,7.3-7.3c2.4-2.3,4.7-4.7,7-7c3.1-3,6-6.1,9.1-9
		C110.4,38.4,114,34.6,117.8,31z"/>
</g>
<g id="_x23_7ecae2ff">
	<path class="st1" d="M124.7,0L124.7,0c2.2,2.6,4.7,4.9,7.1,7.3c36.9,36.8,73.7,73.7,110.5,110.5c2.2,2.2,4.5,4.4,6.6,6.8
		c-2.9,3-6,5.9-8.9,8.9c-3-2-5.6-4.7-8.1-7.4c-9.5-9.5-19.1-19-28.5-28.6c-6.8-6.8-13.9-13.4-20-20.9c-22.4-22.7-45.2-45-67.5-67.8
		C118.7,5.9,121.7,3,124.7,0z"/>
</g>
<g id="_x23_88b8d8ff">
	<path class="st2" d="M105.3,19.3c3.4-3.5,6.9-6.9,10.4-10.4c22.3,22.8,45.1,45.1,67.5,67.8c6.1,7.5,13.2,14.1,20,20.9
		c9.4,9.6,19,19,28.5,28.6c2.5,2.7,5.1,5.3,8.1,7.4c-1,1-2,2-3,3c-18.8-18.6-37.4-37.4-56.2-56.1c-1.9,1.7-3.6,3.5-5.4,5.3
		c-3.2-4.7-7.5-8.7-12-12c1.8-1.8,3.6-3.5,5.2-5.4c-14.7-14.7-29.4-29.3-44-44c-2.4,2.1-4.6,4.5-6.8,6.7
		C113.8,26.9,110.2,22.3,105.3,19.3z"/>
</g>
<g id="_x23_9d92c2ff">
	<path class="st3" d="M94.3,30.3c3.6-3.7,7.4-7.3,11-11c4.9,3,8.5,7.6,12.4,11.6c-3.7,3.7-7.3,7.4-11.1,11.1
		C102.8,37.9,99.3,33.2,94.3,30.3z"/>
	<path class="st3" d="M163.4,73.6c4.6,3.4,8.8,7.3,12,12c-3.8,3.7-7.4,7.5-11.1,11.1c-4.2-3.7-7.2-9.5-12.9-11.2
		C155.3,81.6,159.4,77.7,163.4,73.6z"/>
</g>
<g id="_x23_af70aeff">
	<path class="st4" d="M85.2,39.4c3-3.1,6.1-6,9.1-9.1c5,2.9,8.5,7.6,12.4,11.7c-3.1,3-6,6.1-9.1,9C93.8,47,90.1,42.4,85.2,39.4z"/>
	<path class="st4" d="M151.4,85.6c5.6,1.7,8.7,7.4,12.9,11.2c-2.7,2.6-5.3,5.4-8,8c-2-5.5-7.4-8.7-11.5-12.6
		C146.9,90,149.2,87.9,151.4,85.6z"/>
</g>
<g id="_x23_c0529dff">
	<path class="st5" d="M78.9,45.7c2-2.2,4.2-4.2,6.2-6.3c4.9,2.9,8.6,7.5,12.4,11.7c-2.4,2.3-4.6,4.7-7,7
		C87.4,53.4,83,49.7,78.9,45.7z"/>
	<path class="st5" d="M131.9,105.1c4.2-4.3,8.6-8.5,12.9-12.8c4.1,3.9,9.5,7,11.5,12.6c-4.2,4.1-8.3,8.4-12.5,12.5
		C140.1,113,136.1,108.9,131.9,105.1z"/>
</g>
<g id="_x23_d1338bff">
	<path class="st6" d="M71,53.7c2.6-2.7,5.4-5.2,8-8c4.1,3.9,8.5,7.6,11.7,12.3c-2.5,2.4-4.8,4.9-7.3,7.3C79.1,61.5,75.6,57,71,53.7z
		"/>
	<path class="st6" d="M125.8,111.3c2-2.1,4.1-4.1,6.2-6.2c4.2,3.8,8.2,7.9,11.8,12.2c-2,2-4,4-6,6
		C134.4,118.7,130.2,114.8,125.8,111.3z"/>
</g>
<g id="_x23_e51077ff">
	<path class="st7" d="M2.9,121.8C25.6,99.1,48.2,76.4,71,53.7c4.6,3.3,8.2,7.8,12.3,11.6c-1,0.9-2,1.9-3,2.8
		c14.6,14.9,29.5,29.5,44.1,44.3c0.3-0.3,1-0.9,1.3-1.2c4.4,3.6,8.6,7.4,12,12c-4.4,4.4-8.8,8.8-13.2,13.2
		C105.7,117.9,87.1,99,68.3,80.4c-18.7,18.8-37.4,37.5-56.2,56.2c-4-3.9-8-8.4-12.1-11.9v-0.2C1.4,124.3,1.8,122.5,2.9,121.8z"/>
</g>
</svg>
